X:129
T: PETERSILJE SUPPENKRAUT
N: K2200
O: Europa, Mitteleuropa, Deutschland, Sachsen; Hessen
R: Kinder - Lied, Reigen, Tanz - Spiel, Brautwerbung
M: 2/4
L: 1/8
K: G
 | GGGB | GDD2
EFGE | D2B,2
GGGB | GDD2
EFGE | D2D2
cAA2 | BGG2
AAFD | ddd2
cAA2 | BGG2
AAFD | G4

